X:107
T:3rd A TS.107
M:C
L:1/8
Q:1/2=60
S:Thomas Sands’ MS,1810,Lincolnshire
R:reel
O:England;Lincolnshire
Z:vmp.Ruairidh Greig, 2011
K:F
A/B/|c>dcA c>dcA|A<cf>A {A/}G2 GA/B/|c>dcA cdfa|f<dc>A {A}F2F:|
B|A<cf<a f<afc|d<fc>A G2GB|A<cfc f>af>c|d<fc>AF2F c/B/|
A<cfa A<cfa|c2f/g/a fG GA/B/|c<dcd f>g {f/g/}a>f|f>dcA F2F|]

